X:57
T:Reel du Faubourg
C:Jos Bouchard
M:4/4
L:1/8
K:D
AG |: FAdf afdA | FAdf afdf | Acef gece | dfec dcBA |
FAdf afdA | FAdf afdf | Acef gece |1 dfec dBAG :|2 dddd dBBB  ||
B3b b2aB | BgBB gdBG | DGBd g3g | fafd =cAAA |
a3a gage | f2f fgfe | dfed cdef | (3gfedB BdBg |
gb2b baaa | g2gB BgBB | G2Bd g2gg | fafd =cAAA |
aAAa AAgA | AfAA fgfe | dfed cdef | gagg g2AA |]
